packages/kaspersky-hexa-ui-icons/src/iconsSVGs/24/DeviceGamepadSolid.svg

<svg width="24" height="24" viewBox="0 0 24 24" fill="none" xmlns="http://www.w3.org/2000/svg">
<path fill-rule="evenodd" clip-rule="evenodd" d="M6.79772 4C4.15068 4 2 6.14055 2 8.787V15.532C2 18.0023 4.00745 20 6.47781 20C8.29129 20 9.85244 18.9241 10.5561 17.3788C10.5959 17.2915 10.6489 17.2299 10.6908 17.1976C10.7104 17.1824 10.7225 17.1771 10.7277 17.1755H13.2723C13.2775 17.1771 13.2896 17.1824 13.3092 17.1976C13.3511 17.2299 13.4041 17.2915 13.4439 17.3788C14.1476 18.9241 15.7087 20 17.5222 20C19.9925 20 22 18.0023 22 15.532V8.787C22 6.14055 19.8493 4 17.2023 4H6.79772ZM18.2112 9.00694C18.2112 9.5903 17.7383 10.0632 17.1549 10.0632C16.5715 10.0632 16.0986 9.5903 16.0986 9.00694C16.0986 8.42359 16.5715 7.95068 17.1549 7.95068C17.7383 7.95068 18.2112 8.42359 18.2112 9.00694ZM8.99557 9.36514C8.99557 8.81286 8.54786 8.36514 7.99557 8.36514C7.44329 8.36514 6.99557 8.81286 6.99557 9.36514V10.0065H6.35376C5.80147 10.0065 5.35376 10.4542 5.35376 11.0065C5.35376 11.5588 5.80147 12.0065 6.35376 12.0065H6.99557V12.6481C6.99557 13.2004 7.44329 13.6481 7.99557 13.6481C8.54786 13.6481 8.99557 13.2004 8.99557 12.6481V12.0065H9.63669C10.189 12.0065 10.6367 11.5588 10.6367 11.0065C10.6367 10.4542 10.189 10.0065 9.63669 10.0065H8.99557V9.36514ZM16.0986 12.1596C16.0986 12.743 15.6257 13.2159 15.0423 13.2159C14.459 13.2159 13.9861 12.743 13.9861 12.1596C13.9861 11.5762 14.459 11.1033 15.0423 11.1033C15.6257 11.1033 16.0986 11.5762 16.0986 12.1596Z" fill="black"/>
</svg>

<svg xmlns="http://www.w3.org/2000/svg" width="24" height="24" fill="none" viewBox="0 0 24 24"><path fill="#000" fill-rule="evenodd" d="M6.7977 4C4.1507 4 2 6.1406 2 8.787v6.745C2 18.0023 4.0075 20 6.4778 20c1.8135 0 3.3746-1.0759 4.0783-2.6212.0398-.0873.0928-.1489.1347-.1812.0196-.0152.0317-.0205.0369-.0221h2.5446c.0052.0016.0173.0069.0369.0221.0419.0323.0949.0939.1347.1812C14.1476 18.9241 15.7087 20 17.5222 20 19.9925 20 22 18.0023 22 15.532V8.787C22 6.1405 19.8493 4 17.2023 4zm11.4135 5.007c0 .5833-.4729 1.0562-1.0563 1.0562s-1.0563-.4729-1.0563-1.0563.4729-1.0562 1.0563-1.0562 1.0563.4729 1.0563 1.0562m-9.2156.3581c0-.5522-.4477-1-1-1s-1 .4478-1 1v.6414h-.6418c-.5523 0-1 .4477-1 1s.4477 1 1 1h.6418v.6416c0 .5523.4477 1 1 1s1-.4477 1-1v-.6416h.641c.5524 0 1.0001-.4477 1.0001-1s-.4477-1-1-1h-.6411zm7.103 2.7945c0 .5834-.4729 1.0563-1.0563 1.0563s-1.0562-.4729-1.0562-1.0563.4729-1.0563 1.0562-1.0563 1.0563.4729 1.0563 1.0563"/></svg>
